X:183
T:March,A TS.183
M:C
L:1/8
Q:1/4=120
S:Thomas Sands’ MS,1810,Lincolnshire
R:march
O:England;Lincolnshire
Z:vmp.Ruairidh Greig, 2011
K:Bb
B>A|B2B,>B,B,2d>B|c2F>FF2e>c|dBFD B,fed|cBAG FEDC|
B2B,>B,B,2 dB|c2F>FF2ec|d>fe>g f2e2|f2f>ff2:|
|:f>e|f2F>FF2 fe|e2F>FF2d>c|dBFD B,fed|c2c>cc2F>F|
GBAc Bdce|dfegf2e2|(3dcd (3edcB2″tr”A2|B2B>BB2:|]

